!!!SOCIAL_FUNCTION:	songs used in the treatment of the sick
!!!PDT:	1929
!!!OTL: No_85_I_Run_Toward_Ashes_Hill.krn
!!!REG: Southwest
!!!LANG: Non-Tone
!!!LING_GROUP: Uto-Aztecan
**kern
*staff1
*clefF4
*k[b-]
*M3/4
8F\L
8F\J
=1
8c\L
8c\J
4c\
8c\L
8c\J
=2||
*M2/4
4c\
16A\
16r
8c\
=3
4A\
8.G\L
16F\Jk
=4
8G\L
8F\J
4F\
=5
4G\
4G\
=6!|:
*k[b-e-a-d-]
4A-\
4A-\
=7
16G\LK
8.F\J
8.F\L
16A-\Jk
=8
8G\L
8F\J
4F\
=9
4F\
4r
=10
8.A-\L
16G\Jk
8.A-\L
16G\Jk
=11
4..F\
16A-\
=12
8F\L
8F\J
4F\
=13
4F\
8C/
8r
=14
4F\
16A-\LK
8.G\J
=15
16A-\LK
8.G\J
8F\L
8F\J
=16
4F\
16C/
16r
8F\
=17
8F\L
8F\J
4F\
=18
4F\
16C/
16r
8F\
=19
8F\L
8F\J
4F\
=20
2F\
=21
4F\
4F\
==:|!
*-
